!!!COM:	Gaspar van Weerbeke
!!!ODT:	~1445///-~1516///
!!!OTL:	Dulcis amica Dei / Da pacem
!!!AGN:	Motet
!!!SCT:	Gas2033
!!!SCA:	Gas2033
!!!voices:	5
**kern	**text	**kern	**text	**kern	**text	**kern	**text	**kern	**text
*staff5	*staff5	*staff4	*staff4	*staff3	*staff3	*staff2	*staff2	*staff1	*staff1
*Ivox	*	*Ivox	*	*Ivox	*	*Ivox	*	*Ivox	*
*I"Bassus	*	*I"Tenor2	*	*I"Tenor1	*	*I"Altus	*	*I"Superius	*
*I'B	*	*I'T2	*	*I'T1	*	*I'A	*	*I'S	*
*>[A,B]	*>[A,B]	*>[A,B]	*>[A,B]	*>[A,B]	*>[A,B]	*>[A,B]	*>[A,B]	*>[A,B]	*>[A,B]
*>A	*>A	*>A	*>A	*>A	*>A	*>A	*>A	*>A	*>A
*clefF4	*	*clefGv2	*	*clefGv2	*	*clefGv2	*	*clefG2	*
*k[b-]	*	*k[b-]	*	*k[b-]	*	*k[b-]	*	*k[b-]	*
*M3/1	*	*M3/1	*	*M3/1	*	*M3/1	*	*M3/1	*
*met(O)	*	*met(O)	*	*met(O)	*	*met(O)	*	*met(O)	*
!!section: Prima pars: Dulcis amica dei
!!!OMD: Prima pars: Dulcis amica dei
=1-	=1-	=1-	=1-	=1-	=1-	=1-	=1-	=1-	=1-
1GG	Dul-	0G	Dul-	0.r	.	0.r	.	0.r	.
1BB-	.	.	.	.	.	.	.	.	.
1AA	-cis	1F	-cis	.	.	.	.	.	.
=2	=2	=2	=2	=2	=2	=2	=2	=2	=2
2GG/	a-	1G	a-	0.r	.	0.r	.	0g	Dul-
2C/	.	.	.	.	.	.	.	.	.
2BB-/	-mi-	1B-	-mi-	.	.	.	.	.	.
2GG/	.	.	.	.	.	.	.	.	.
1D	-ca	1A	-ca	.	.	.	.	1f	-cis
=3	=3	=3	=3	=3	=3	=3	=3	=3	=3
0GG	de-	0.r	.	0.r	.	0G	Dul-	1g	a-
.	.	.	.	.	.	.	.	1b-	-mi-
1D	-i,	.	.	.	.	1F	-cis	1a	.
=4	=4	=4	=4	=4	=4	=4	=4	=4	=4
0.r	.	1r	.	0.r	.	1G	a-	2d/	-ca
.	.	.	.	.	.	.	.	2e/	.
.	.	1G	de-	.	.	1B-	-mi-	2d/	.
.	.	.	.	.	.	.	.	2.g/	de-
.	.	[1D	.	.	.	1A	.	.	.
.	.	.	.	.	.	.	.	4f/	.
.	.	.	.	.	.	.	.	[2f/	.
=5	=5	=5	=5	=5	=5	=5	=5	=5	=5
0.r	.	2D/]	.	0.r	.	1D	-ca	2f/]	.
.	.	1F	.	.	.	.	.	1a	.
.	.	.	.	.	.	2r	.	.	.
.	.	2D/	.	.	.	1d	de-	2f/	.
.	.	1A	-i,	.	.	.	.	1e	.
.	.	.	.	.	.	2c\	.	.	.
=6	=6	=6	=6	=6	=6	=6	=6	=6	=6
0.r	.	1r	.	0.r	.	2B-\	.	2d/	.
.	.	.	.	.	.	2G/	.	2b-\	.
.	.	1r	.	.	.	2F/	.	2a/	.
.	.	.	.	.	.	2G/	.	1g	.
.	.	1D	di-	.	.	1A	.	.	.
.	.	.	.	.	.	.	.	2f#i/	.
=7	=7	=7	=7	=7	=7	=7	=7	=7	=7
0.r	.	2E/	-gna	0.r	.	1G	-i,	0g	-i,
.	.	2.G/	ge-	.	.	.	.	.	.
.	.	.	.	.	.	1r	.	.	.
.	.	4A/	.	.	.	.	.	.	.
.	.	2.B-\	.	.	.	.	.	.	.
.	.	.	.	.	.	1G	di-	1b-	di-
.	.	4c\	.	.	.	.	.	.	.
.	.	[2d\	.	.	.	.	.	.	.
=8	=8	=8	=8	=8	=8	=8	=8	=8	=8
0.r	.	4d\]	.	0.r	.	1F	-gna	1a	-gna
.	.	4c\	.	.	.	.	.	.	.
.	.	2d\	.	.	.	.	.	.	.
.	.	4e-i\	.	.	.	1.E-i	ge-	1.g	ge-
.	.	4d\	.	.	.	.	.	.	.
.	.	4c\	.	.	.	.	.	.	.
.	.	4B-\	.	.	.	.	.	.	.
.	.	1c	-ni-	.	.	.	.	.	.
.	.	.	.	.	.	2E-i/	-ni-	2g/	-ni-
=9	=9	=9	=9	=9	=9	=9	=9	=9	=9
0.r	.	1.d	-trix	0.r	.	1D	-trix,	0f	-trix,
.	.	.	.	.	.	2r	.	.	.
.	.	4c\	vir-	.	.	1D	vir-	.	.
.	.	4B-\	.	.	.	.	.	.	.
.	.	2A/	.	.	.	.	.	1r	.
.	.	2G/	-go	.	.	2Eni/	.	.	.
=10	=10	=10	=10	=10	=10	=10	=10	=10	=10
0.r	.	2.A/	sem-	0.r	.	1F	-go	2r	.
.	.	.	.	.	.	.	.	1d	vir-
.	.	4G/	.	.	.	.	.	.	.
.	.	1E	.	.	.	1G	sem-	.	.
.	.	.	.	.	.	.	.	2e/	.
.	.	1D	-per	.	.	1A	-per	1f	-go
=11	=11	=11	=11	=11	=11	=11	=11	=11	=11
0.r	.	2r	.	0.r	.	2B-\	Ma-	1g	sem-
.	.	2C/	Ma-	.	.	1c	-ri-	.	.
.	.	1F	-ri-	.	.	.	.	1a	-per
.	.	.	.	.	.	1d	.	.	.
.	.	2G/	.	.	.	.	.	2b-\	Ma-
.	.	[2A/	.	.	.	2c\	.	[2cc\	-ri-
=12	=12	=12	=12	=12	=12	=12	=12	=12	=12
0.r	.	4A/]	.	0.r	.	2A/	.	4cc\]	.
.	.	4G/	.	.	.	.	.	4b-\	.
.	.	2F/	.	.	.	1d	.	4a/	.
.	.	.	.	.	.	.	.	4g/	.
.	.	2D/	.	.	.	.	.	2f/	.
.	.	2E/	.	.	.	2G/	.	1g	.
.	.	1D	-a,	.	.	1A	.	.	.
.	.	.	.	.	.	.	.	2f#i/	.
=13	=13	=13	=13	=13	=13	=13	=13	=13	=13
0GG	hu-	1r	.	0.r	.	0.G	-a,	0.g	-a,
.	.	1r	.	.	.	.	.	.	.
1G	.	1d	hu-	.	.	.	.	.	.
=14	=14	=14	=14	=14	=14	=14	=14	=14	=14
0G	-mi-	2e-i\	-mi-	0.r	.	0.r	.	0.r	.
.	.	1d	.	.	.	.	.	.	.
.	.	4c\	.	.	.	.	.	.	.
.	.	4B-\	.	.	.	.	.	.	.
1E-	.	4c\	.	.	.	.	.	.	.
.	.	4B-\	.	.	.	.	.	.	.
.	.	4A/	.	.	.	.	.	.	.
.	.	4G/	.	.	.	.	.	.	.
=15	=15	=15	=15	=15	=15	=15	=15	=15	=15
1.D	-les	0F	-les	0.r	.	0.r	.	0.r	.
2BB-/	.	.	.	.	.	.	.	.	.
1C	nos-	1E	nos-	.	.	.	.	.	.
=16	=16	=16	=16	=16	=16	=16	=16	=16	=16
0GG	-tras,	1D	-tras,	0.r	.	0.r	.	0.r	.
.	.	2r	.	.	.	.	.	.	.
.	.	1G	ac	.	.	.	.	.	.
2BB-/	ac	.	.	.	.	.	.	.	.
2C/	fra-	2E/	fra-	.	.	.	.	.	.
=17	=17	=17	=17	=17	=17	=17	=17	=17	=17
2.D\	-gi-	2F/	-gi-	0.r	.	0.r	.	0.r	.
.	.	1A	.	.	.	.	.	.	.
4E\	.	.	.	.	.	.	.	.	.
2F\	.	.	.	.	.	.	.	.	.
2G\	.	2B-\	.	.	.	.	.	.	.
2E\	.	2.c\	.	.	.	.	.	.	.
[2F\	.	.	.	.	.	.	.	.	.
.	.	4B-\	.	.	.	.	.	.	.
=18	=18	=18	=18	=18	=18	=18	=18	=18	=18
2F\]	.	2A/	.	0.r	.	0.r	.	0.r	.
2B-\	.	2G/	.	.	.	.	.	.	.
2A\	.	2F/	.	.	.	.	.	.	.
1G	.	2G/	.	.	.	.	.	.	.
.	.	1A	-les,	.	.	.	.	.	.
2F\	.	.	.	.	.	.	.	.	.
=19	=19	=19	=19	=19	=19	=19	=19	=19	=19
2G\	-les	2.B-\	su-	0.r	.	0.r	.	0.r	.
2D\	su-	.	.	.	.	.	.	.	.
.	.	4A/	.	.	.	.	.	.	.
4E-i\	-sci-	4G/	.	.	.	.	.	.	.
4D\	.	4F/	.	.	.	.	.	.	.
4C/	.	2G/	-sci-	.	.	.	.	.	.
4BB-/	.	.	.	.	.	.	.	.	.
2AA/	-pe	2.A/	-pe	.	.	.	.	.	.
[2D\	pre-	.	.	.	.	.	.	.	.
.	.	4G/	.	.	.	.	.	.	.
=20	=20	=20	=20	=20	=20	=20	=20	=20	=20
2D\]	.	2F/	.	0.r	.	0.r	.	0.r	.
2C/	.	2E/	.	.	.	.	.	.	.
2BB-/	.	2D/	pre-	.	.	.	.	.	.
2C/	.	1G	.	.	.	.	.	.	.
1AA	.	.	.	.	.	.	.	.	.
.	.	2F#i/	.	.	.	.	.	.	.
=21	=21	=21	=21	=21	=21	=21	=21	=21	=21
0GG	-ces,	0G	-ces,	0.r	.	1r	.	1r	.
.	.	.	.	.	.	1r	.	1r	.
1GG	Ad	1D	.	.	.	1d	Ad	[1g	Ad
=22	=22	=22	=22	=22	=22	=22	=22	=22	=22
1C	te	1r	.	0.G	Da	1e-i	te	1g]	.
1BB-	.	0D	Ad	.	.	1d	.	0b-	.
1GG	nos	.	.	.	.	1B-	nos	.	.
=23	=23	=23	=23	=23	=23	=23	=23	=23	=23
0.AA	pau-	0C	te	0.F	pa-	0c	pau-	1a	te
.	.	.	.	.	.	.	.	1a	nos
.	.	1C	nos	.	.	1A	-pe-	1cc	.
=24	=24	=24	=24	=24	=24	=24	=24	=24	=24
0GG	.	1.D	pau-	0.G	-cem	0B-	-res	2b-\	pau-
.	.	.	.	.	.	.	.	2.g/	.
.	.	.	.	.	.	.	.	4f/	.
.	.	1G	.	.	.	.	.	2d/	.
1C	-pe-	.	.	.	.	1c	in	1e	-pe-
.	.	2E/	-pe-	.	.	.	.	.	.
=25	=25	=25	=25	=25	=25	=25	=25	=25	=25
[0.BB-	-res	0F	-res,	[0.B-	do-	2d\	hoc	0d	-res
.	.	.	.	.	.	2.f\	se-	.	.
.	.	.	.	.	.	4e\	.	.	.
.	.	.	.	.	.	4d\	.	.	.
.	.	.	.	.	.	4c\	.	.	.
.	.	1F	in	.	.	1d	-cu-	1r	.
=26	=26	=26	=26	=26	=26	=26	=26	=26	=26
0BB-]	.	0D	hoc	0.B-]	.	2.B-\	-lo	1f	in
.	.	.	.	.	.	4c\	.	.	.
.	.	.	.	.	.	1d	.	2g/	hoc
.	.	.	.	.	.	.	.	1b-	.
1GG	.	1G	se-	.	.	1r	.	.	.
.	.	.	.	.	.	.	.	2g/	.
=27	=27	=27	=27	=27	=27	=27	=27	=27	=27
0.FF	.	1C	-cu-	0.c	-mi-	1A	et	2a/	.
.	.	.	.	.	.	.	.	2.cc\	se-
.	.	0F	-lo	.	.	2F/	.	.	.
.	.	.	.	.	.	.	.	4b-\	.
.	.	.	.	.	.	1f	lac-	4a/	.
.	.	.	.	.	.	.	.	4g/	.
.	.	.	.	.	.	.	.	1a	-cu-
.	.	.	.	.	.	2f\	-ri-	.	.
=28	=28	=28	=28	=28	=28	=28	=28	=28	=28
0.r	.	1.G	et	0.B-	-ne	2.d\	-ma-	1b-	-lo
.	.	.	.	.	.	4c\	.	.	.
.	.	.	.	.	.	4B-\	.	2r	.
.	.	.	.	.	.	4A/	.	.	.
.	.	1E-i	lac-	.	.	1G	.	2.b-\	et
.	.	.	.	.	.	.	.	4a/	.
.	.	2D/	.	.	.	2d\	.	2f/	.
=29	=29	=29	=29	=29	=29	=29	=29	=29	=29
0.r	.	2E-i/	.	0.r	.	2B-\	.	2.g/	lac-
.	.	2C/	.	.	.	2.e-\	.	.	.
.	.	.	.	.	.	.	.	4f/	.
.	.	1D	-ri-	.	.	.	.	2d/	.
.	.	.	.	.	.	4d\	.	.	.
.	.	.	.	.	.	1d	.	2f/	-ri-
.	.	1E-i	-ma-	.	.	.	.	1g	-ma-
.	.	.	.	.	.	2c\	.	.	.
=30	=30	=30	=30	=30	=30	=30	=30	=30	=30
0D	sus-	1D	-rum,	[0.A	in	0d	-rum,	0f	-rum,
.	.	1r	.	.	.	.	.	.	.
1D	-pi-	2.F/	val-	.	.	2r	.	1a	val-
.	.	.	.	.	.	2D/	val-	.	.
.	.	4E/	.	.	.	.	.	.	.
=31	=31	=31	=31	=31	=31	=31	=31	=31	=31
1AA	-ra-	1C	.	1A]	.	2.E/	.	1cc	.
.	.	.	.	.	.	4F/	.	.	.
0GG	.	0D	-le	0B-	di-	1G	.	1b-	.
.	.	.	.	.	.	1d	-le	[1g	-le
=32	=32	=32	=32	=32	=32	=32	=32	=32	=32
1C	-mus,	1E	sus-	0.c	-e-	1r	.	2g/]	.
.	.	.	.	.	.	.	.	2g/	sus-
1r	.	1.F	.	.	.	2.A/	val-	1a	-pi-
.	.	.	.	.	.	4B-\	.	.	.
1FF	sus-	.	.	.	.	1c	-le,	4a/	-ra-
.	.	.	.	.	.	.	.	4g/	.
.	.	2A/	-pi-	.	.	.	.	4f/	.
.	.	.	.	.	.	.	.	4e/	.
=33	=33	=33	=33	=33	=33	=33	=33	=33	=33
1GG	-pi-	2B-\	-ra-	1B-	-bus	2r	.	2d/	.
.	.	2G/	.	.	.	2.d\	sus-	2g/	.
0D	-ra-	2.D/	.	0A	nos-	.	.	4a/	.
.	.	.	.	.	.	4e\	.	4g/	.
.	.	.	.	.	.	2f\	.	4f#/	.
.	.	4E/	.	.	.	.	.	4e/	.
.	.	2F/	.	.	.	1d	-pi-	1f#i	.
.	.	2D/	.	.	.	.	.	.	.
=34	=34	=34	=34	=34	=34	=34	=34	=34	=34
0.GG	-mus.	0D	-mus,	0.G	-tris,	1.B-	-ra-	0.g	-mus,
.	.	.	.	.	.	2G/	.	.	.
.	.	1r	.	.	.	1G	-mus,	.	.
=35	=35	=35	=35	=35	=35	=35	=35	=35	=35
0.r	.	1D	ad	0.r	.	0.r	.	1r	.
.	.	2E/	cle-	.	.	.	.	1r	.
.	.	1F	-men-	.	.	.	.	.	.
.	.	.	.	.	.	.	.	1d	ad
.	.	2D/	.	.	.	.	.	.	.
=36	=36	=36	=36	=36	=36	=36	=36	=36	=36
0.r	.	2C/	.	0.r	.	0.r	.	2e/	cle-
.	.	2.D/	.	.	.	.	.	1f	-men-
.	.	4E/	.	.	.	.	.	.	.
.	.	4F/	.	.	.	.	.	2d/	.
.	.	4G/	.	.	.	.	.	.	.
.	.	2A/	.	.	.	.	.	2c/	.
.	.	2B-\	.	.	.	.	.	[2d/	.
=37	=37	=37	=37	=37	=37	=37	=37	=37	=37
0.r	.	2G/	.	0.r	.	0.r	.	4d/]	.
.	.	.	.	.	.	.	.	4e/	.
.	.	2A/	.	.	.	.	.	4f/	.
.	.	.	.	.	.	.	.	4g/	.
.	.	2F/	-ti-	.	.	.	.	2a/	.
.	.	2.G/	-am	.	.	.	.	2b-\	-ti-
.	.	.	.	.	.	.	.	1g	-am
.	.	4F/	.	.	.	.	.	.	.
.	.	4E/	.	.	.	.	.	.	.
.	.	4D/	.	.	.	.	.	.	.
=38	=38	=38	=38	=38	=38	=38	=38	=38	=38
0.r	.	2C/	.	0.r	.	0.r	.	2e-i/	tu-
.	.	1G	tu-	.	.	.	.	2d/	.
.	.	.	.	.	.	.	.	2B-/	.
.	.	2E/	.	.	.	.	.	1c	.
.	.	1F	-am	.	.	.	.	.	.
.	.	.	.	.	.	.	.	2A/	.
=39	=39	=39	=39	=39	=39	=39	=39	=39	=39
2r	.	0.r	.	0.r	.	2.G/	o-	1G	-am
1G	o-	.	.	.	.	.	.	.	.
.	.	.	.	.	.	4A/	.	.	.
.	.	.	.	.	.	2B-\	-cu-	1r	.
2E\	-cu-	.	.	.	.	1c	-los	.	.
1F	-los	.	.	.	.	.	.	1r	.
.	.	.	.	.	.	2A/	.	.	.
=40	=40	=40	=40	=40	=40	=40	=40	=40	=40
2.GG/	non	0.r	.	0.r	.	2B-\	non	0.r	.
.	.	.	.	.	.	1G	.	.	.
4AA/	.	.	.	.	.	.	.	.	.
2BB-/	.	.	.	.	.	.	.	.	.
1C	si-	.	.	.	.	2G/	si-	.	.
.	.	.	.	.	.	2E/	-ne	.	.
2AA/	-ne	.	.	.	.	2F/	.	.	.
=41	=41	=41	=41	=41	=41	=41	=41	=41	=41
2BB-/	spe	0.r	.	0.r	.	1G	spe	0.r	.
1GG	.	.	.	.	.	.	.	.	.
.	.	.	.	.	.	2D/	e-	.	.
2C/	e-	.	.	.	.	2E/	.	.	.
2AA/	-ri-	.	.	.	.	2F/	.	.	.
2BB-/	.	.	.	.	.	[2G/	-ri-	.	.
=42	=42	=42	=42	=42	=42	=42	=42	=42	=42
1C	.	0.r	.	0.r	.	2G/]	.	0.r	.
.	.	.	.	.	.	2A/	.	.	.
2GG/	.	.	.	.	.	2B-\	.	.	.
2AA/	.	.	.	.	.	2c\	.	.	.
2BB-/	.	.	.	.	.	1d	.	.	.
[2C/	.	.	.	.	.	.	.	.	.
=43	=43	=43	=43	=43	=43	=43	=43	=43	=43
2C/]	.	0.r	.	0.r	.	2c\	.	0.r	.
1D	.	.	.	.	.	4B-\	.	.	.
.	.	.	.	.	.	2A/	.	.	.
.	.	.	.	.	.	4G/	.	.	.
2BB-/	.	.	.	.	.	1G	.	.	.
1AA	-gi-	.	.	.	.	.	.	.	.
.	.	.	.	.	.	2F#i/	-gi-	.	.
=44	=44	=44	=44	=44	=44	=44	=44	=44	=44
0GG	-mus,	0D	mi-	[0.B-	qui-	0G	-mus,	1r	.
.	.	.	.	.	.	.	.	0g	Te
1r	.	1E-	-se-	.	.	2r	.	.	.
.	.	.	.	.	.	2G/	Te	.	.
=45	=45	=45	=45	=45	=45	=45	=45	=45	=45
1r	.	2D/	-ri-	0.B-]	.	2A/	mi-	2f/	mi-
.	.	1E-i	-cor-	.	.	2B-\	-se-	1g	-se-
1r	.	.	.	.	.	1G	-ri-	.	.
.	.	4D/	-di-	.	.	.	.	4f/	-ri-
.	.	4C/	.	.	.	.	.	4e/	.
1GG	Te	1BB-	-e	.	.	1d	-cor-	2d/	-cor-
.	.	.	.	.	.	.	.	2g/	-di-
=46	=46	=46	=46	=46	=46	=46	=46	=46	=46
0D	mi-	1r	.	0.A	-a	2.d\	-di-	2.f/	-e
.	.	.	.	.	.	4e\	-e	4g/	.
.	.	1F	ma-	.	.	2.f\	ma-	1.a	ma-
.	.	.	.	.	.	4e\	.	.	.
1F	-se-	2.A/	-trem,	.	.	1c	-trem,	.	.
.	.	.	.	.	.	.	.	4g/	.
.	.	4B-\	.	.	.	.	.	4f/	.
=47	=47	=47	=47	=47	=47	=47	=47	=47	=47
0C	-ri-	1c	.	0G	non	1r	.	0e	-trem,
.	.	2r	.	.	.	1c	et	.	.
.	.	2C/	et	.	.	.	.	.	.
2AA/	-cor-	2.E/	pau-	1A	est,	1c	pau-	1e	et
2C/	-di-	.	.	.	.	.	.	.	.
.	.	4F/	.	.	.	.	.	.	.
=48	=48	=48	=48	=48	=48	=48	=48	=48	=48
1GG	-e	2.G/	.	0B-	a-	2.B-\	-pe-	2.d/	pau-
.	.	4F/	.	.	.	8A/L	.	4e/	.
.	.	.	.	.	.	8G/J	.	.	.
1r	.	1D	.	.	.	1F	-rum	1f	.
1r	.	1C	-pe-	[1c	.	1G	ad-	2e/	.
.	.	.	.	.	.	.	.	[2g/	.
=49	=49	=49	=49	=49	=49	=49	=49	=49	=49
1C	pau-	1E	.	1c]	.	2.G/	-vo-	2g/]	.
.	.	.	.	.	.	.	.	2e/	-pe-
.	.	.	.	.	.	4A/	.	.	.
0BB-	-pe-	0D	-rum	0d	.	0B-	-ca-	1f	-rum
.	.	.	.	.	.	.	.	1f	ad-
=50	=50	=50	=50	=50	=50	=50	=50	=50	=50
0C	-rum	1r	.	0.c	.	1G	-tam,	2.e/	-vo-
.	.	.	.	.	.	.	.	4f/	.
.	.	2.E/	ad-	.	.	1r	.	2g/	.
.	.	.	.	.	.	.	.	2a/	-ca-
.	.	4F/	.	.	.	.	.	.	.
1E-i	ad-	2G/	.	.	.	1r	.	2g/	.
.	.	2C/	-vo-	.	.	.	.	[2cc\	.
=51	=51	=51	=51	=51	=51	=51	=51	=51	=51
1D	-vo-	1F	-ca-	1d	.	1r	.	2cc\]	.
.	.	.	.	.	.	.	.	2bni\	.
0C	-ca-	0G	-tam,	0e-	-li-	1r	.	0cc	-tam,
.	.	.	.	.	.	1c	cor-	.	.
=52	=52	=52	=52	=52	=52	=52	=52	=52	=52
0.D	-tam,	1r	.	0.d	-us	1A	-de	0f	cor-
.	.	0A	cor-	.	.	2A/	et	.	.
.	.	.	.	.	.	1d	o-	.	.
.	.	.	.	.	.	.	.	1f	-de
.	.	.	.	.	.	2d\	-re	.	.
=53	=53	=53	=53	=53	=53	=53	=53	=53	=53
0.r	.	2G/	-de	0.r	.	2B-\	con-	1g	et
.	.	2E/	et	.	.	2c\	.	.	.
.	.	2F/	o-	.	.	2A/	.	2a/	.
.	.	2BB-/	.	.	.	2d\	.	1b-	o-
.	.	1F	-re	.	.	1c	.	.	.
.	.	.	.	.	.	.	.	2a/	.
=54	=54	=54	=54	=54	=54	=54	=54	=54	=54
1GG	con-	2G/	con-	0.r	.	2.B-\	-fi-	2g/	-re
.	.	1d	.	.	.	.	.	1b-	con-
.	.	.	.	.	.	4c\	.	.	.
2BB-/	-fi-	.	.	.	.	2d\	.	.	.
2C/	.	4c\	-fi-	.	.	2e-i\	.	1g	-fi-
.	.	4B-\	.	.	.	.	.	.	.
1D	-te-	1A	-te-	.	.	1d	.	.	.
.	.	.	.	.	.	.	.	2f#i/	-te-
=55	=55	=55	=55	=55	=55	=55	=55	=55	=55
0GG	-mur,	0G	.	[0.d	qui	1B-	.	0g	-mur,
.	.	.	.	.	.	2B-\	-te-	.	.
.	.	.	.	.	.	2G/	.	.	.
1GG	per	1G	-mur,	.	.	1D	-mur,	1b-	.
=56	=56	=56	=56	=56	=56	=56	=56	=56	=56
1BB-	te	1D	per	1d]	.	1r	.	2.f/	per
.	.	.	.	.	.	.	.	4g/	.
1AA	nam-	1E	te	0c	.	1A	per	4a/	.
.	.	.	.	.	.	.	.	4b-\	.
.	.	.	.	.	.	.	.	2.cc\	.
1C	-que	1E	nam-	.	.	1G	te	.	.
.	.	.	.	.	.	.	.	4b-\	.
.	.	.	.	.	.	.	.	2g/	.
=57	=57	=57	=57	=57	=57	=57	=57	=57	=57
1r	.	1D	-que	1.d	pu-	2A/	nam-	1f	te
.	.	.	.	.	.	2.B-\	-que	.	.
2BB-/	pax	1r	.	.	.	.	.	2f/	nam-
.	.	.	.	.	.	4c\	.	.	.
2GG/	.	.	.	2B-\	.	4d\	.	1b-	.
.	.	.	.	.	.	4e\	.	.	.
1FF	.	1F	pax	1c	-gnet	1f	.	.	.
.	.	.	.	.	.	.	.	2a/	-que
=58	=58	=58	=58	=58	=58	=58	=58	=58	=58
0.r	.	1.G	.	[0.B-	ni-	0d	pax	0b-	pax
.	.	4F/	.	.	.	.	.	.	.
.	.	4E/	.	.	.	.	.	.	.
.	.	2D/	nos-	.	.	2d\	nos-	2f/	nos-
.	.	2G/	.	.	.	2B-\	.	2g/	.
=59	=59	=59	=59	=59	=59	=59	=59	=59	=59
1BB-	nos-	1F	.	0.B-]	.	1f	-tra	0d	-tra
2BB-/	-tra	2F/	-tra	.	.	1r	.	.	.
2GG/	.	2.G/	.	.	.	.	.	.	.
2.BB-/	a-	.	.	.	.	1r	.	2.d/	a-
.	.	4F/	.	.	.	.	.	.	.
.	.	2D/	.	.	.	.	.	.	.
4C/	.	.	.	.	.	.	.	4e/	.
=60	=60	=60	=60	=60	=60	=60	=60	=60	=60
0D	-pud	1r	.	0.A	-si	0d	a-	1f	-pud
.	.	1.F	a-	.	.	.	.	1r	.
1AA	de-	.	.	.	.	1c	-pud	1a	de-
.	.	2F/	-pud	.	.	.	.	.	.
=61	=61	=61	=61	=61	=61	=61	=61	=61	=61
0GG	-um,	0G	de-	0B-	tu,	2B-\	de-	2d/	.
.	.	.	.	.	.	2G/	.	1g	.
.	.	.	.	.	.	2.D/	.	.	.
.	.	.	.	.	.	.	.	2b-\	.
.	.	.	.	.	.	4E/	.	.	.
1FF	ef-	1C	-um,	1c	de-	1F	-um,	1a	-um,
=62	=62	=62	=62	=62	=62	=62	=62	=62	=62
0GG	-fe-	2r	.	0.B-	-us	2D/	ef-	1.g	ef-
.	.	2.D/	ef-	.	.	2.G/	.	.	.
.	.	4E/	.	.	.	4A/	.	.	.
.	.	2D/	.	.	.	2.B-\	.	4f/	.
.	.	.	.	.	.	.	.	4e/	.
1GG	-cta	1G	-fe-	.	.	.	.	2d/	.
.	.	.	.	.	.	4c\	.	.	.
.	.	.	.	.	.	[2d\	.	2g/	.
=63	=63	=63	=63	=63	=63	=63	=63	=63	=63
1D	est,	2A/	.	0.A	no-	2d\]	.	2f/	-fe-
.	.	2.F/	.	.	.	2d\	-fe-	2.a/	.
1r	.	.	.	.	.	2c\	.	.	.
.	.	8E/L	.	.	.	.	.	4g/	.
.	.	8D/J	.	.	.	.	.	.	.
.	.	2C/	.	.	.	2e-i\	.	1g	.
1r	.	1D	-cta	.	.	1d	-cta	.	.
.	.	.	.	.	.	.	.	2f#i/	-cta
=64	=64	=64	=64	=64	=64	=64	=64	=64	=64
1GG	ut	1D	est,	[0.Gl	-ster.	2.B-\	est,	0g	est,
.	.	.	.	.	.	8c\L	.	.	.
.	.	.	.	.	.	8d\J	.	.	.
1C	di-	1r	.	.	.	1e-i	.	.	.
2BB-/	.	2D/	ut	.	.	2d\	ut	1r	.
2C/	.	2C/	.	.	.	2e-i\	di-	.	.
=65	=65	=65	=65	=65	=65	=65	=65	=65	=65
2BB-/	.	2D/	di-	0.G]	.	2d\	.	1r	.
1C	.	2.G/	.	.	.	1e-i	.	.	.
.	.	.	.	.	.	.	.	0g	ut
.	.	4A/	.	.	.	.	.	.	.
2BB-/	.	4B-\	.	.	.	2d\	.	.	.
.	.	4c\	.	.	.	.	.	.	.
1GG	-gne	[1d	-gne	.	.	1B-	-gne	.	.
=66	=66	=66	=66	=66	=66	=66	=66	=66	=66
0D	tem-	0.d]	.	0.r	.	0A	tem-	1f	di-
.	.	.	.	.	.	.	.	1f	-gne
1GG	-plum	.	.	.	.	1B-	-plum	2.g/	tem-
.	.	.	.	.	.	.	.	4f/	.
=67	=67	=67	=67	=67	=67	=67	=67	=67	=67
2AA/	pa-	2c\	tem-	0.r	.	2c\	pa-	2e/	.
2BB-/	.	2d\	-plum	.	.	2B-\	.	2d/	.
2C/	.	2G/	pa-	.	.	2e-i\	.	2c/	-plum
2D\	.	2F/	.	.	.	1d	.	2r	.
1AA	-cis	1E	-cis	.	.	.	.	1cc	pa-
.	.	.	.	.	.	2c\	-cis	.	.
=68	=68	=68	=68	=68	=68	=68	=68	=68	=68
4BB-/	di-	2D/	di-	0.r	.	0d	di-	2b-\	.
4C/	.	.	.	.	.	.	.	.	.
2D\	.	2F/	.	.	.	.	.	1a	.
2BB-/	.	2G/	.	.	.	.	.	.	.
2GG/	.	2B-\	.	.	.	.	.	1g	-cis
1D	-ci	1A	-ci	.	.	1d	-ci,	.	.
.	.	.	.	.	.	.	.	2f/	di-
=69	=69	=69	=69	=69	=69	=69	=69	=69	=69
2.GG/	va-	2r	.	0.r	.	2.B-\	va-	2g/	-ci
.	.	1G	va-	.	.	.	.	1b-	va-
4AA/	.	.	.	.	.	4c\	.	.	.
4BB-/	.	.	.	.	.	4d\	.	.	.
4C/	.	.	.	.	.	4e\	.	.	.
2D\	.	2F/	.	.	.	2f\	.	2a/	.
1E	-le-	1G	-le-	.	.	2e\	-le-	2.g/	-le-
.	.	.	.	.	.	2c\	.	.	.
.	.	.	.	.	.	.	.	4e/	.
=70	=70	=70	=70	=70	=70	=70	=70	=70	=70
0.Dl	-as.	0.Al	-as.	0.r	.	0.dl	-as.	0.fl	-as.
!!LO:LB:i:g=z
=71||	=71||	=71||	=71||	=71||	=71||	=71||	=71||	=71||	=71||
*>B	*>B	*>B	*>B	*>B	*>B	*>B	*>B	*>B	*>B
*clefF4	*	*clefGv2	*	*clefGv2	*	*clefGv2	*	*clefG2	*
*k[b-]	*	*k[b-]	*	*k[b-]	*	*k[b-]	*	*k[b-]	*
*M2/1	*	*M2/1	*	*M2/1	*	*M2/1	*	*M2/1	*
*met(C|)	*	*met(C|)	*	*met(C|)	*	*met(C|)	*	*met(C|)	*
!!section: Secunda pars: Rogamus te
!!!OMD: Secunda pars: Rogamus te
0GG	Ro-	0B-	Ro-	0r	.	0d	Ro-	0g	Ro-
=72	=72	=72	=72	=72	=72	=72	=72	=72	=72
1GG	-ga-	1B-	-ga-	0r	.	1d	-ga-	1g	-ga-
1GG	-mus	1B-	-mus	.	.	1d	-mus	1g	-mus
=73	=73	=73	=73	=73	=73	=73	=73	=73	=73
1.D	te	1.A	te	0r	.	1.d	te	1.f	te
2D\	pi-	2A/	pi-	.	.	2d\	pi-	2f/	pi-
=74	=74	=74	=74	=74	=74	=74	=74	=74	=74
1D	-is-	1A	-is-	0r	.	1d	-is-	1f	-is-
1D	-si-	1A	-si-	.	.	1d	-si-	1f	-si-
=75	=75	=75	=75	=75	=75	=75	=75	=75	=75
1GG	-ma	1B-	-ma	0r	.	1d	-ma	1g	-ma
1GG	vir-	1B-	vir-	.	.	1d	vir-	1g	vir-
=76	=76	=76	=76	=76	=76	=76	=76	=76	=76
0C	-go,	0G	-go,	0r	.	1.c	-go	0g	-go,
.	.	.	.	.	.	2c\	pro	.	.
=77	=77	=77	=77	=77	=77	=77	=77	=77	=77
0C	pro	1G	pro	0r	.	1c	In-	0e	pro
.	.	1A	In-	.	.	1c	-no-	.	.
=78	=78	=78	=78	=78	=78	=78	=78	=78	=78
1BB-	In-	0B-	-no-	0r	.	0F	-cen-	1d	In-
1BB-	-no-	.	.	.	.	.	.	1d	-no-
=79	=79	=79	=79	=79	=79	=79	=79	=79	=79
0FF	-cen-	1A	-cen-	0r	.	1r	.	0c	-cen-
.	.	1A	-ti-	.	.	1F	-ti-	.	.
=80	=80	=80	=80	=80	=80	=80	=80	=80	=80
1GG	-ti-	1G	-o	0r	.	1D	-o	1B-	-ti-
1GG	-o	2D/	pa-	.	.	1G	pa-	1B-	-o
.	.	2E/	.	.	.	.	.	.	.
=81	=81	=81	=81	=81	=81	=81	=81	=81	=81
0BB-	pa-	2.D/	.	0r	.	2F/	.	0d	pa-
.	.	.	.	.	.	2G/	.	.	.
.	.	4E/	.	.	.	.	.	.	.
.	.	2F/	.	.	.	2F/	.	.	.
.	.	[2G/	.	.	.	[2B-\	.	.	.
=82	=82	=82	=82	=82	=82	=82	=82	=82	=82
1BB-	-pa	2G/]	.	0r	.	2B-\]	.	1d	-pa
.	.	4F/	-pa	.	.	4A/	-pa	.	.
.	.	4E/	.	.	.	4G/	.	.	.
1BB-	nos-	1D	nos-	.	.	2F/	nos-	1d	nos-
.	.	.	.	.	.	2G/	.	.	.
=83	=83	=83	=83	=83	=83	=83	=83	=83	=83
0AA	-tro,	0E	-tro,	0r	.	2.A/	.	0c	-tro,
.	.	.	.	.	.	4G/	.	.	.
.	.	.	.	.	.	1E	.	.	.
=84	=84	=84	=84	=84	=84	=84	=84	=84	=84
0r	.	0r	.	0r	.	1D	-tro,	1d	que
.	.	.	.	.	.	1r	.	2e/	tu-
.	.	.	.	.	.	.	.	2g/	.
=85	=85	=85	=85	=85	=85	=85	=85	=85	=85
0r	.	1D	que	0r	.	0r	.	1f	-is
.	.	2E/	tu-	.	.	.	.	1e	al-
.	.	2G/	.	.	.	.	.	.	.
=86	=86	=86	=86	=86	=86	=86	=86	=86	=86
0r	.	1F	-is	0r	.	0r	.	2f/	-tis-
.	.	.	.	.	.	.	.	2a/	.
.	.	1E	al-	.	.	.	.	1g	-si-
=87	=87	=87	=87	=87	=87	=87	=87	=87	=87
0r	.	2F/	-tis-	0r	.	0r	.	1f	-mis
.	.	2A/	.	.	.	.	.	.	.
.	.	1G	-si-	.	.	.	.	2g/	me-
.	.	.	.	.	.	.	.	2b-\	.
=88	=88	=88	=88	=88	=88	=88	=88	=88	=88
1r	.	1F	-mis	0r	.	0r	.	1a	-ri-
1GG	que	2G/	me-	.	.	.	.	1g	-tis
.	.	2B-\	.	.	.	.	.	.	.
=89	=89	=89	=89	=89	=89	=89	=89	=89	=89
2AA/	tu-	1A	-ri-	0r	.	1r	.	2e/	.
2C/	.	.	.	.	.	.	.	2c/	.
1BB-	-is	2G/	-tis	.	.	1G	que	2r	.
.	.	2D/	que	.	.	.	.	[2d/	et
=90	=90	=90	=90	=90	=90	=90	=90	=90	=90
1AA	al-	1E	tu-	0r	.	2A/	tu-	2d/]	.
.	.	.	.	.	.	2c\	.	2c/	.
2BB-/	-tis-	2D/	-is	.	.	1B-	-is	1d	.
2D\	.	2F/	.	.	.	.	.	.	.
=91	=91	=91	=91	=91	=91	=91	=91	=91	=91
1C	-si-	1E	al-	0r	.	1A	al-	2r	.
.	.	.	.	.	.	.	.	2e/	pre-
1BB-	-mis	1F	-tis-	.	.	2B-\	-tis-	1d	-ci-
.	.	.	.	.	.	2d\	.	.	.
=92	=92	=92	=92	=92	=92	=92	=92	=92	=92
2C/	me-	2E/	-si-	0r	.	1c	-si-	1e	-bus,
2E-i\	-ri-	2G/	.	.	.	.	.	.	.
1D	-tis	1F	-mis,	.	.	1B-	-mis	2r	.
.	.	.	.	.	.	.	.	[2f/	pre-
=93	=93	=93	=93	=93	=93	=93	=93	=93	=93
1C	et	1G	me-	0r	.	2c\	me-	2f/]	.
.	.	.	.	.	.	2e-i\	-ri-	2e/	-ci-
1D	pre-	2F/	-ri-	.	.	1d	-tis	1f	-bus,
.	.	2A/	-tis	.	.	.	.	.	.
=94	=94	=94	=94	=94	=94	=94	=94	=94	=94
0E-i	-ci-	2G/	et	0r	.	1c	et	2r	.
.	.	2C/	pre-	.	.	.	.	1g	pre-
.	.	1G	-ci-	.	.	2c\	pre-	.	.
.	.	.	.	.	.	2c\	-ci-	4f/	-ci-
.	.	.	.	.	.	.	.	4e/	.
=95	=95	=95	=95	=95	=95	=95	=95	=95	=95
0D	-bus,	0A	-bus,	0r	.	0d	-bus,	0f	-bus,
=96	=96	=96	=96	=96	=96	=96	=96	=96	=96
0r	.	0r	.	0r	.	0e-i	mun-	0g	mun-
=97	=97	=97	=97	=97	=97	=97	=97	=97	=97
0r	.	0r	.	0r	.	1e-i	-da	1g	-da
.	.	.	.	.	.	[1d	pa-	2.f/	pa-
.	.	.	.	.	.	.	.	4g/	.
=98	=98	=98	=98	=98	=98	=98	=98	=98	=98
0r	.	0r	.	0r	.	1d]	.	2a/	.
.	.	.	.	.	.	.	.	1b-	.
.	.	.	.	.	.	1c	-cem	.	.
.	.	.	.	.	.	.	.	[2a/	-cem
=99	=99	=99	=99	=99	=99	=99	=99	=99	=99
0r	.	0r	.	0r	.	1B-	con-	2a/]	.
.	.	.	.	.	.	.	.	2g/	con-
.	.	.	.	.	.	2A/	-tu-	2a/	-tu-
.	.	.	.	.	.	[2d\	-li-	[2b-\	-li-
=100	=100	=100	=100	=100	=100	=100	=100	=100	=100
0r	.	0r	.	0r	.	4d\]	.	4b-\]	.
.	.	.	.	.	.	4c\	.	4a/	.
.	.	.	.	.	.	4B-\	.	4g/	.
.	.	.	.	.	.	4A/	.	4f/	.
.	.	.	.	.	.	1B-	.	1g	.
=101	=101	=101	=101	=101	=101	=101	=101	=101	=101
0r	.	0D	ut	0r	.	0A	-sti,	0f	-sti,
=102	=102	=102	=102	=102	=102	=102	=102	=102	=102
0GG	ut	0D	si-	[0G	Da	1B-	ut	1g	ut
.	.	.	.	.	.	1B-	si-	[1b-	si-
=103	=103	=103	=103	=103	=103	=103	=103	=103	=103
1BB-	si-	1D	-bi	0G]	.	1d	.	1b-]	.
1C	.	1E	.	.	.	[1c	-bi	1g	-bi
=104	=104	=104	=104	=104	=104	=104	=104	=104	=104
0AA	.	0C	.	0F	pa-	1c]	.	0a	pla-
.	.	.	.	.	.	1A	pla-	.	.
=105	=105	=105	=105	=105	=105	=105	=105	=105	=105
0GG	-bi	0D	.	0G	-cem	0B-	-ca-	0d	-ca-
=106	=106	=106	=106	=106	=106	=106	=106	=106	=106
0r	.	0r	.	0r	.	1A	-bi-	1f	-bi-
.	.	.	.	.	.	2c\	-lem	2e/	-lem
.	.	.	.	.	.	2B-\	u-	2g/	u-
=107	=107	=107	=107	=107	=107	=107	=107	=107	=107
0r	.	0r	.	0r	.	2d\	-ni-	2f/	-ni-
.	.	.	.	.	.	2c\	-ge-	2a/	-ge-
.	.	.	.	.	.	2e-i\	-ni-	2g/	-ni-
.	.	.	.	.	.	[2d\	-tum	[2b-\	-tum
=108	=108	=108	=108	=108	=108	=108	=108	=108	=108
0r	.	0r	.	0r	.	2d\]	.	4b-\]	.
.	.	.	.	.	.	.	.	4a/	.
.	.	.	.	.	.	2B-\	.	1g	tu-
.	.	.	.	.	.	1A	tu-	.	.
.	.	.	.	.	.	.	.	2f#i/	.
=109	=109	=109	=109	=109	=109	=109	=109	=109	=109
0GG	ac	0D	ac	[0B-	do-	1G	-um,	0g	-um,
.	.	.	.	.	.	2r	.	.	.
.	.	.	.	.	.	2G/	ac	.	.
=110	=110	=110	=110	=110	=110	=110	=110	=110	=110
0GG	pi-	1.D	pi-	0B-]	.	1d	pi-	1g	ac
.	.	.	.	.	.	1B-	.	1g	pi-
.	.	2E/	.	.	.	.	.	.	.
=111	=111	=111	=111	=111	=111	=111	=111	=111	=111
1FF	-is-	1F	-is-	0c	-mi-	0A	-is-	0a	-is-
1FF	-si-	1F	-si-	.	.	.	.	.	.
=112	=112	=112	=112	=112	=112	=112	=112	=112	=112
1.GG	-mum,	[0D	-mum,	[0B-	-ne	1G	-si-	1b-	-si-
.	.	.	.	.	.	1G	-mum,	1g	.
2AA/	.	.	.	.	.	.	.	.	.
=113	=113	=113	=113	=113	=113	=113	=113	=113	=113
0BB-	.	0D]	.	0B-]	.	1F	re-	0d	-mum,
.	.	.	.	.	.	1F	-dem-	.	.
=114	=114	=114	=114	=114	=114	=114	=114	=114	=114
0r	.	0r	.	0r	.	0E	-pto-	2.c/	re-
.	.	.	.	.	.	.	.	4d/	.
.	.	.	.	.	.	.	.	4e/	.
.	.	.	.	.	.	.	.	4f/	.
.	.	.	.	.	.	.	.	2g/	.
=115	=115	=115	=115	=115	=115	=115	=115	=115	=115
0r	.	0r	.	0r	.	2D/	.	2f/	-dem-
.	.	.	.	.	.	2.F/	.	1a	-pto-
.	.	.	.	.	.	4G/	.	.	.
.	.	.	.	.	.	[2A/	.	4g/	.
.	.	.	.	.	.	.	.	4f/	.
=116	=116	=116	=116	=116	=116	=116	=116	=116	=116
0r	.	0r	.	0r	.	2A/]	.	1e	.
.	.	.	.	.	.	2G/	.	.	.
.	.	.	.	.	.	2A/	.	2f/	.
.	.	.	.	.	.	2F/	.	2d/	.
=117	=117	=117	=117	=117	=117	=117	=117	=117	=117
0AA	re-	1A	re-	[0A	in	[0E	-rem,	1c	-rem,
.	.	[1c	-dem-	.	.	.	.	2.e/	nos-
.	.	.	.	.	.	.	.	4f/	.
=118	=118	=118	=118	=118	=118	=118	=118	=118	=118
0AA	-dem-	2c\]	.	0A_	.	0E]	.	2e/	-trum
.	.	1c	-pto-	.	.	.	.	2.a/	fa-
.	.	.	.	.	.	.	.	4g/	.
.	.	[2A/	.	.	.	.	.	[2e/	.
=119	=119	=119	=119	=119	=119	=119	=119	=119	=119
1AA	-pto-	2A/]	.	0A]	.	1r	.	2e/]	.
.	.	2F/	.	.	.	.	.	1d	.
1AA	-rem	1E	.	.	.	1A	nos-	.	.
.	.	.	.	.	.	.	.	2c#i/	-ci-
=120	=120	=120	=120	=120	=120	=120	=120	=120	=120
0BB-	nos-	0D	-rem,	0r	.	1F	.	1d	-as,
.	.	.	.	.	.	1D	-trum	1B-	.
=121	=121	=121	=121	=121	=121	=121	=121	=121	=121
0C	-trum	1G	nos-	0r	.	1r	.	1e-i	.
.	.	1E	.	.	.	1G	fa-	1c	.
=122	=122	=122	=122	=122	=122	=122	=122	=122	=122
1BB-	fa-	1D	-trum	0B-	di-	2.B-\	-ci-	1d	.
.	.	.	.	.	.	4c\	.	.	.
1GG	.	[1G	fa-	.	.	2.d\	.	1B-	.
.	.	.	.	.	.	4e\	.	.	.
=123	=123	=123	=123	=123	=123	=123	=123	=123	=123
0AA	-ci-	1G]	.	0c	-e-	1f	-as,	0A	.
.	.	1F#i	-ci-	.	.	1r	.	.	.
=124	=124	=124	=124	=124	=124	=124	=124	=124	=124
0GG	-as,	0G	-as,	1B-	-bus	0d	et	0r	.
.	.	.	.	1G	.	.	.	.	.
=125	=125	=125	=125	=125	=125	=125	=125	=125	=125
0r	.	0D	et	0A	nos-	1d	ec-	0a	ec-
.	.	.	.	.	.	1d	-cle-	.	.
=126	=126	=126	=126	=126	=126	=126	=126	=126	=126
1GG	et	1D	ec-	[0G	-tris,	0B-	-si-	1.b-	-cle-
1GG	ec-	1D	-cle-	.	.	.	.	.	.
.	.	.	.	.	.	.	.	2g/	-si-
=127	=127	=127	=127	=127	=127	=127	=127	=127	=127
1C	-cle-	1.E	-si-	0G]	.	0c	-e	0g	-e
2.C/	-si-	.	.	.	.	.	.	.	.
.	.	2F/	.	.	.	.	.	.	.
4D\	.	.	.	.	.	.	.	.	.
=128	=128	=128	=128	=128	=128	=128	=128	=128	=128
1E	-e	1G	-e	0r	.	0r	.	0r	.
1F	san-	1A	san-	.	.	.	.	.	.
=129	=129	=129	=129	=129	=129	=129	=129	=129	=129
2E\	.	2G/	.	0r	.	0r	.	0r	.
2D\	.	2.B-\	.	.	.	.	.	.	.
2G\	.	.	.	.	.	.	.	.	.
.	.	4A/	.	.	.	.	.	.	.
2E\	.	[2c\	.	.	.	.	.	.	.
=130	=130	=130	=130	=130	=130	=130	=130	=130	=130
2.F\	.	4c\]	.	0r	.	0r	.	0r	.
.	.	4B-\	.	.	.	.	.	.	.
.	.	4A/	.	.	.	.	.	.	.
4G\	.	4G/	.	.	.	.	.	.	.
1D	-cte	2A/	-cte	.	.	.	.	.	.
.	.	[2B-\	i-	.	.	.	.	.	.
=131	=131	=131	=131	=131	=131	=131	=131	=131	=131
2D\	i-	2B-\]	.	0r	.	0r	.	0r	.
2BB-/	-ni-	1G	-ni-	.	.	.	.	.	.
1AA	-mi-	.	.	.	.	.	.	.	.
.	.	2F#i/	-mi-	.	.	.	.	.	.
=132	=132	=132	=132	=132	=132	=132	=132	=132	=132
1GG	-cos,	1G	-cos,	[0B-	qui-	0d	ad	1.g	ad
1GG	ad	1G	ad	.	.	.	.	.	.
.	.	.	.	.	.	.	.	2f/	.
=133	=133	=133	=133	=133	=133	=133	=133	=133	=133
1GG	ve-	0G	ve-	0B-]	.	0d	ve-	1d	.
1GG	-ram	.	.	.	.	.	.	[1g	ve-
=134	=134	=134	=134	=134	=134	=134	=134	=134	=134
1r	.	1D	.	0A	-a	2.d\	-ram	1g]	.
.	.	.	.	.	.	4c\	.	.	.
1D	di-	[1d	.	.	.	1A	.	1f	.
=135	=135	=135	=135	=135	=135	=135	=135	=135	=135
1E	-lec-	1d]	.	0G	non	0r	.	1g	-ram
1E	-ti-	1c#i	.	.	.	.	.	1e	di-
=136	=136	=136	=136	=136	=136	=136	=136	=136	=136
1D	-o-	0d	-ram	0A	est,	1r	.	1f	-lec-
1D	-nem	.	.	.	.	1d	di-	2.f/	-ti-
.	.	.	.	.	.	.	.	4e/	.
=137	=137	=137	=137	=137	=137	=137	=137	=137	=137
0r	.	0r	.	0r	.	1.f	-lec-	2.d/	-o-
.	.	.	.	.	.	.	.	4c/	.
.	.	.	.	.	.	.	.	2A/	.
.	.	.	.	.	.	2e\	-ti-	2G/	.
=138	=138	=138	=138	=138	=138	=138	=138	=138	=138
0r	.	0r	.	0r	.	2d\	-o-	2B-/	.
.	.	.	.	.	.	2c\	.	2A/	.
.	.	.	.	.	.	2B-\	-nem	2G/	-nem
.	.	.	.	.	.	2A/	per-	2c/	per-
=139	=139	=139	=139	=139	=139	=139	=139	=139	=139
0r	.	0r	.	0r	.	2G/	.	2B-/	.
.	.	.	.	.	.	2F/	.	2A/	.
.	.	.	.	.	.	2B-\	-du-	2d/	-du-
.	.	.	.	.	.	[2A/	.	[2c/	.
=140	=140	=140	=140	=140	=140	=140	=140	=140	=140
0r	.	0r	.	0r	.	2A/]	.	4c/]	.
.	.	.	.	.	.	.	.	4d/	.
.	.	.	.	.	.	1G	.	2B-/	.
.	.	.	.	.	.	.	.	1A	.
.	.	.	.	.	.	2F#i/	.	.	.
=141	=141	=141	=141	=141	=141	=141	=141	=141	=141
0GG	ut	0D	ut	0B-	a-	0G	-cas,	1G	-cas,
.	.	.	.	.	.	.	.	[1g	ut
=142	=142	=142	=142	=142	=142	=142	=142	=142	=142
0C	pa-	1E	pa-	0c	.	1r	.	1g]	.
.	.	1E	-cem	.	.	1G	ut	1e	pa-
=143	=143	=143	=143	=143	=143	=143	=143	=143	=143
0BB-	-cem,	0D	que-	0d	.	0B-	pa-	1.f	.
.	.	.	.	.	.	.	.	2g/	.
=144	=144	=144	=144	=144	=144	=144	=144	=144	=144
[0FF	que-	1F	-rant	0c	.	0A	-cem,	[0a	-cem,
.	.	1F	et	.	.	.	.	.	.
=145	=145	=145	=145	=145	=145	=145	=145	=145	=145
1FF]	.	0F	a-	0c	-li-	2.F/	que-	0a]	.
.	.	.	.	.	.	4G/	.	.	.
1FF	-rant	.	.	.	.	1A	.	.	.
=146	=146	=146	=146	=146	=146	=146	=146	=146	=146
1BB-	et	0F	-ment,	0d	.	1D	-rant	0b-	que-
1D	a-	.	.	.	.	1F	et	.	.
=147	=147	=147	=147	=147	=147	=147	=147	=147	=147
0C	-ment,	0r	.	0e-i	.	1.G	a-	0cc	-rant
.	.	.	.	.	.	2A/	.	.	.
=148	=148	=148	=148	=148	=148	=148	=148	=148	=148
0BB-	Et	0F	Et	[0d	-us	[0B-	-ment,	0f	Et
=149	=149	=149	=149	=149	=149	=149	=149	=149	=149
0BB-	pre-	0F	pre-	0d_	.	0B-]	.	[0b-	pre-
=150	=150	=150	=150	=150	=150	=150	=150	=150	=150
1BB-	-sta	1F	-sta	0d_	.	2.B-\	Et	0b-]	.
.	.	.	.	.	.	4c\	.	.	.
1BB-	no-	1F	no-	.	.	2d\	pre-	.	.
.	.	.	.	.	.	2e\	.	.	.
=151	=151	=151	=151	=151	=151	=151	=151	=151	=151
0D	-bis	0F	-bis	0d]	.	0f	-sta	0a	-sta
=152	=152	=152	=152	=152	=152	=152	=152	=152	=152
1BB-	.	0G	.	0r	.	1d	no-	1.b-	no-
1GG	.	.	.	.	.	1B-	.	.	.
.	.	.	.	.	.	.	.	4a/	.
.	.	.	.	.	.	.	.	4g/	.
=153	=153	=153	=153	=153	=153	=153	=153	=153	=153
1D	.	1A	.	0r	.	1A	-bis	1f	-bis
2r	.	1B-	fa-	.	.	1G	fa-	[1g	fa-
2G\	fa-	.	.	.	.	.	.	.	.
=154	=154	=154	=154	=154	=154	=154	=154	=154	=154
2C/	.	1c	.	0r	.	2E/	.	1g]	.
2E-i\	.	.	.	.	.	2G/	.	.	.
2D\	.	1d	-mu-	.	.	2A/	.	[1f	-mu-
2BB-/	-mu-	.	.	.	.	2B-\	-mu-	.	.
=155	=155	=155	=155	=155	=155	=155	=155	=155	=155
2AA/	-lis	2c\	-lis	0r	.	2c\	-lis	2f/]	.
2BB-/	tu-	1B-	tu-	.	.	1F	tu-	2d/	-lis
1C	.	.	.	.	.	.	.	1e	tu-
.	.	2A/	.	.	.	2E/	.	.	.
=156	=156	=156	=156	=156	=156	=156	=156	=156	=156
0BB-	-is,	0B-	-is,	[0d	qui	1F	-is,	0d	-is,
.	.	.	.	.	.	1r	.	.	.
=157	=157	=157	=157	=157	=157	=157	=157	=157	=157
0r	.	1F	qui	0d_	.	1D	qui	0r	.
.	.	2A/	de	.	.	2F/	de	.	.
.	.	[2B-\	.	.	.	[2G/	.	.	.
=158	=158	=158	=158	=158	=158	=158	=158	=158	=158
0r	.	2B-\]	.	0d_	.	2G/]	.	1r	.
.	.	4A/	.	.	.	4F/	.	.	.
.	.	4G/	.	.	.	4E/	.	.	.
.	.	1F	.	.	.	1D	.	1f	qui
=159	=159	=159	=159	=159	=159	=159	=159	=159	=159
0r	.	2F/	tu-	0d]	.	4d\	tu-	2a/	de
.	.	.	.	.	.	4c\	.	.	.
.	.	1G	.	.	.	4B-\	.	1b-	.
.	.	.	.	.	.	4A/	.	.	.
.	.	.	.	.	.	1G	.	.	.
.	.	4F/	.	.	.	.	.	4a/	.
.	.	4E/	.	.	.	.	.	4g/	.
=160	=160	=160	=160	=160	=160	=160	=160	=160	=160
2r	.	1D	-a	0r	.	1A	.	1f	.
1D	qui	.	.	.	.	.	.	.	.
.	.	1r	.	.	.	2B-\	.	2f/	tu-
2BB-/	de	.	.	.	.	2d\	.	[2g/	.
=161	=161	=161	=161	=161	=161	=161	=161	=161	=161
1C	tu-	1G	pro-	0r	.	1c	.	2g/]	.
.	.	.	.	.	.	.	.	4f/	.
.	.	.	.	.	.	.	.	4e/	.
1D	-a	2F/	-tec-	.	.	2A/	.	1d	-a
.	.	2F/	-ti-	.	.	[2d\	.	.	.
=162	=162	=162	=162	=162	=162	=162	=162	=162	=162
1G	pro-	1E	-o-	0r	.	2d\]	.	0r	.
.	.	.	.	.	.	2c\	-a	.	.
2F\	-tec-	1D	-ne,	.	.	2r	.	.	.
2F\	-ti-	.	.	.	.	[2d\	pro-	.	.
=163	=163	=163	=163	=163	=163	=163	=163	=163	=163
1E	-o-	1r	.	0r	.	4d\]	.	1g	pro-
.	.	.	.	.	.	4e\	.	.	.
.	.	.	.	.	.	2.c\	-tec-	.	.
1D	.	2r	.	.	.	.	.	2f/	-tec-
.	.	.	.	.	.	4d\	.	.	.
.	.	2F/	pro-	.	.	2B-\	-ti-	2f/	-ti-
=164	=164	=164	=164	=164	=164	=164	=164	=164	=164
1C	.	2G/	-tec-	0r	.	1c	-o-	1e	-o-
.	.	2E/	-ti-	.	.	.	.	.	.
1D	.	1F	-o-	.	.	1A	-ne,	1d	-ne,
=165	=165	=165	=165	=165	=165	=165	=165	=165	=165
0BB-	-ne,	0D	-ne,	0d	qui	1B-	con-	1r	.
.	.	.	.	.	.	1F	.	[1f	con-
=166	=166	=166	=166	=166	=166	=166	=166	=166	=166
1r	.	1BB-	con-	1d	pu-	1B-	-fi-	2f/]	.
.	.	.	.	.	.	.	.	2g/	.
1FF	con-	1F	-fi-	1c	-gnet	1A	.	1a	-fi-
=167	=167	=167	=167	=167	=167	=167	=167	=167	=167
2GG/	-fi-	2D/	-di-	2B-\	pro	2G/	-di-	2b-\	-di-
2AA/	.	2C/	-mus	2A/	.	2F/	.	2.cc\	-mus
2GG/	.	1r	.	1B-	.	2G/	.	.	.
.	.	.	.	.	.	.	.	4b-\	.
2BB-/	.	.	.	.	.	2D/	.	[2b-\	ad-
=168	=168	=168	=168	=168	=168	=168	=168	=168	=168
0FF	-di-	1r	.	0c	no-	4F/	-mus,	2b-\]	.
.	.	.	.	.	.	4G/	.	.	.
.	.	.	.	.	.	4A/	.	2a/	-ver-
.	.	.	.	.	.	4B-\	.	.	.
.	.	[1F	ut	.	.	1c	.	2a/	-san-
.	.	.	.	.	.	.	.	4g/	-ti-
.	.	.	.	.	.	.	.	4a/	.
=169	=169	=169	=169	=169	=169	=169	=169	=169	=169
0BB-	-mus	1F]	.	[0B-	-bis	1.d	ut	0b-	-a
.	.	2G/	cunc-	.	.	.	.	.	.
.	.	2F/	.	.	.	[2f\	cunc-	.	.
=170	=170	=170	=170	=170	=170	=170	=170	=170	=170
0r	.	1D	.	0B-]	.	4f\]	.	0r	.
.	.	.	.	.	.	4e\	.	.	.
.	.	.	.	.	.	1d	.	.	.
.	.	1G	.	.	.	.	.	.	.
.	.	.	.	.	.	4c\	.	.	.
.	.	.	.	.	.	4B-\	.	.	.
=171	=171	=171	=171	=171	=171	=171	=171	=171	=171
1D	ut	2.F/	.	0r	.	2A/	.	0r	.
.	.	.	.	.	.	4B-\	.	.	.
.	.	4G/	.	.	.	4c\	.	.	.
2BB-/	cunc-	[1B-	.	.	.	2d\	.	.	.
2C/	.	.	.	.	.	2c\	.	.	.
=172	=172	=172	=172	=172	=172	=172	=172	=172	=172
2D\	.	2B-\]	.	0r	.	2A/	.	0r	.
2BB-/	-ta	1G	-ta	.	.	2B-\	-ta	.	.
2C/	no-	.	.	.	.	1A	no-	.	.
2D\	.	2F#i/	no-	.	.	.	.	.	.
=173	=173	=173	=173	=173	=173	=173	=173	=173	=173
0E-	-bis,	0G	-bis,	0r	.	2G/	-bis	1r	.
.	.	.	.	.	.	1B-	ad-	.	.
.	.	.	.	.	.	.	.	[1g	te
.	.	.	.	.	.	[2e-i\	.	.	.
=174	=174	=174	=174	=174	=174	=174	=174	=174	=174
1E-i	ad-	1G	ad-	0r	.	2e-\]	.	1g]	.
.	.	.	.	.	.	4d\	-ver-	.	.
.	.	.	.	.	.	4c\	.	.	.
1E-i	-ver-	1G	-ver-	.	.	2B-\	-san-	1g	ad-
.	.	.	.	.	.	2G/	.	.	.
=175	=175	=175	=175	=175	=175	=175	=175	=175	=175
1BB-	-san-	1F	-san-	[0B-	ni-	1d	-ti-	1d	-iu-
1BB-	-ti-	1D	-ti-	.	.	1d	-a	1f	-van-
=176	=176	=176	=176	=176	=176	=176	=176	=176	=176
0GG	-a,	0D	-a,	0B-]	.	0r	.	0g	-te,
=177	=177	=177	=177	=177	=177	=177	=177	=177	=177
*M3/1	*	*M3/1	*	*M3/1	*	*M3/1	*	*M3/1	*
*met(3)	*	*met(3)	*	*met(3)	*	*met(3)	*	*met(3)	*
0D	te	0F	te	[0.A	-si	0d	te	0a	te
[1D	ad-	[1F	ad-	.	.	1d	ad-	[1f	ad-
=178	=178	=178	=178	=178	=178	=178	=178	=178	=178
1D]	.	1F]	.	1A]	.	1f	.	1f]	.
0D	-iu-	0F	-iu-	0B-	tu,	0f	-iu-	0d	-iu-
=179	=179	=179	=179	=179	=179	=179	=179	=179	=179
0C	-van-	0G	-van-	[0.c	de-	0e	-van-	0g	-van-
[1C	-te	1G	-te	.	.	1c	-te	1e	-te
=180	=180	=180	=180	=180	=180	=180	=180	=180	=180
1C]	.	1E	.	0.c]	.	1.A	vin-	1c	vin-
0AA	vin-	0C	.	.	.	.	.	1.e	-ca-
.	.	.	.	.	.	2B-\	.	.	.
.	.	.	.	.	.	1c	-ca-	.	.
.	.	.	.	.	.	.	.	2f/	.
=181	=181	=181	=181	=181	=181	=181	=181	=181	=181
1GG	-ca-	0.r	.	1B-	-us	0d	-mus,	0g	.
0D	.	.	.	0A	no-	.	.	.	.
.	.	.	.	.	.	1d	ad	1f#i	.
=182	=182	=182	=182	=182	=182	=182	=182	=182	=182
0GG	-mus,	0.r	.	[0.G	-ster.	0B-	lau-	0g	-mus,
1C	ad	.	.	.	.	1c	-dem	1e	ad
=183	=183	=183	=183	=183	=183	=183	=183	=183	=183
0C	lau-	0.r	.	0.G_	.	1.G	et	1.e	lau-
.	.	.	.	.	.	2A/	.	2c/	.
1BB-	.	.	.	.	.	1B-	glo-	1d	.
=184	=184	=184	=184	=184	=184	=184	=184	=184	=184
1C	-dem	0.r	.	0.G_	.	1e-i	-ri-	1c	-dem
1GG	et	.	.	.	.	1d	-am	1d	et
1C	glo-	.	.	.	.	1e-i	fi-	[1g	glo-
=185	=185	=185	=185	=185	=185	=185	=185	=185	=185
1D	.	0.r	.	0.G]	.	0d	.	1g]	.
0E-i	-ri-	.	.	.	.	.	.	0g	-ri-
.	.	.	.	.	.	1c	-li-	.	.
=186	=186	=186	=186	=186	=186	=186	=186	=186	=186
0D	-am,	0A	fi-	0.r	.	0.d	-i	0f	-am,
1D	fi-	1B-	.	.	.	.	.	1d	fi-
=187	=187	=187	=187	=187	=187	=187	=187	=187	=187
0F	.	1.A	.	0.r	.	0.r	.	0c	.
.	.	2B-\	.	.	.	.	.	.	.
1F	-li-	1c	-li-	.	.	.	.	1c	-li-
=188	=188	=188	=188	=188	=188	=188	=188	=188	=188
1F	-i	0d	-i	0.r	.	0A	tu-	1f	-i
0E	tu-	.	.	.	.	.	.	0g	tu-
.	.	1c#i	tu-	.	.	1G	-i	.	.
=189	=189	=189	=189	=189	=189	=189	=189	=189	=189
0D	-i	0.d	-i,	0.r	.	0A	do-	0f	-i
1r	.	.	.	.	.	1F	-mi-	1r	.
=190	=190	=190	=190	=190	=190	=190	=190	=190	=190
0D	do-	0d	do-	0.r	.	1D	-ni	0f	do-
.	.	.	.	.	.	1F	nos-	.	.
1BB-	-mi-	1d	-mi-	.	.	[1f	.	1b-	-mi-
=191	=191	=191	=191	=191	=191	=191	=191	=191	=191
1F	.	1c	.	0.r	.	1f]	.	1a	.
0G	-ni	0B-	-ni	.	.	0d	.	0g	-ni
=192	=192	=192	=192	=192	=192	=192	=192	=192	=192
0F	nos-	0A	nos-	0.r	.	0f	-tri	0a	nos-
[1C	-tri	[1G	-tri	.	.	1r	.	[1e	-tri
=193	=193	=193	=193	=193	=193	=193	=193	=193	=193
1C]	.	1G]	.	0.r	.	1r	.	1e]	.
0GG	Je-	0B-	Je-	.	.	0d	Je-	0g	Je-
=194	=194	=194	=194	=194	=194	=194	=194	=194	=194
1GG	-su	1B-	-su	0.r	.	1d	-su	1g	-su
0GG	Chri-	0B-	Chri-	.	.	0d	Chri-	0g	Chri-
=195	=195	=195	=195	=195	=195	=195	=195	=195	=195
0AA	-sti,	0A	-sti,	0.r	.	0c	-sti,	0e	-sti,
1C	qui	1G	qui	.	.	1c	qui	1e	qui
=196	=196	=196	=196	=196	=196	=196	=196	=196	=196
0D	est	0F	est	0.r	.	0A	est	0f	est
1C	ve-	1G	ve-	.	.	1c	ve-	1e	ve-
=197	=197	=197	=197	=197	=197	=197	=197	=197	=197
1BB-	-ra	1D	-ra	0.r	.	1G	-ra	0d	-ra
0AA	pax	0E	.	.	.	0A	.	.	.
.	.	.	.	.	.	.	.	1c#i	.
=198	=198	=198	=198	=198	=198	=198	=198	=198	=198
0.r	.	0D	pax	0.r	.	0F	pax	0d	pax
.	.	1r	.	.	.	1r	.	1c	.
=199	=199	=199	=199	=199	=199	=199	=199	=199	=199
0.r	.	0.r	.	0.r	.	1G	in	1B-	.
.	.	.	.	.	.	1B-	se-	1G	.
.	.	.	.	.	.	1c	-cu-	1r	.
=200	=200	=200	=200	=200	=200	=200	=200	=200	=200
1GG	in	0.r	.	0.r	.	0d	-la,	0.r	.
1BB-	se-	.	.	.	.	.	.	.	.
1C	-cu-	.	.	.	.	1c	.	.	.
=201	=201	=201	=201	=201	=201	=201	=201	=201	=201
0D	-la,	0.r	.	0.r	.	0B-	.	0.r	.
1C	.	.	.	.	.	1A	.	.	.
=202	=202	=202	=202	=202	=202	=202	=202	=202	=202
1BB-	.	0.r	.	0.r	.	0B-	.	1d	in
1D	.	.	.	.	.	.	.	1f	se-
1E	.	.	.	.	.	1G	be-	1g	-cu-
=203	=203	=203	=203	=203	=203	=203	=203	=203	=203
1F	.	1D	in	0.r	.	1F	-ne-	0a	-la,
1BB-	.	1F	se-	.	.	1.D	-dic-	.	.
1GG	.	1G	-cu-	.	.	.	.	1b-	.
.	.	.	.	.	.	2E/	.	.	.
=204	=204	=204	=204	=204	=204	=204	=204	=204	=204
0FF	.	0A	-la,	0.r	.	1.F	.	1.cc	.
.	.	.	.	.	.	2G/	.	2b-\	.
1r	.	1c	.	.	.	1A	.	2a/	.
.	.	.	.	.	.	.	.	2g/	.
=205	=205	=205	=205	=205	=205	=205	=205	=205	=205
0BB-	be-	0d	.	0.r	.	1D	-tus,	0b-	.
.	.	.	.	.	.	1B-	be-	.	.
1E-i	-ne-	1G	be-	.	.	1c	-ne-	1g	be-
=206	=206	=206	=206	=206	=206	=206	=206	=206	=206
0D	-dic-	1A	-ne-	0.r	.	1.d	-dic-	1f	-ne-
.	.	1F	-dic-	.	.	.	.	1.a	-dic-
.	.	.	.	.	.	2c\	.	.	.
1G	.	1B-	.	.	.	1d	.	.	.
.	.	.	.	.	.	.	.	2g/	.
=207	=207	=207	=207	=207	=207	=207	=207	=207	=207
1C	.	1c	.	0.r	.	1e-	.	0g	.
0D	.	0A	.	.	.	0d	.	.	.
.	.	.	.	.	.	.	.	1f#i	.
=208	=208	=208	=208	=208	=208	=208	=208	=208	=208
0.GGl	-tus.	0.Gl	-tus.	0.Gl	tus.	0.dl	-tus.	0.gl	-tus.
==	==	==	==	==	==	==	==	==	==
*-	*-	*-	*-	*-	*-	*-	*-	*-	*-
!!!RDF**kern: l=long note in original notation
!!!RDF**kern: i=editorial accidental
!!!ENC:	Jesse Rodin 
!!!END:	2014/08/07/
!!!EED:	Jesse Rodin
!!!EEV:	2014/08/15/
!!!ONB:	Translated from MusicXML and edited on 2014/08/15/ by Craig Sapp
!!muse2ps: C^@{COM}^i2I150v85,85,85,85,100z16c160
